X: 25669
T: Martin Wynne's
R: reel
M: 4/4
K: Gmajor
Bc|dged BdAc|BG {A}(3GFG DEGA|BG {A}(3GFG Bdef|
gbaf gfec|dged BdAc|BG {A}(3GFG DEGA|BG {A}(3GFG Bdef|
gbaf g2 (3Bcd|g2gf gfec|dged BGBd|g2fa gfec|
dega bg {a}(3gfg|gbaf gfec|dged BGBd|g2fa gfed|ceaf g2|

